X:1
T:Suite No. 4 for Solo Violin
T:Suite No. 4 for Solo Violin
T:in C Major
T:Johann Paul von Westhoff
C:J. P. von Westhoff
%%score ( 1 2 3 4 )
L:1/8
Q:1/4=60
M:4/4
K:C
V:1 treble nm="Violin" snm="Vln."
V:2 treble 
V:3 treble 
V:4 treble 
V:1
"^Allemande" e | e2- e/g/f/g/ eBcA | dcBB cBcc | fg/a/ gf eGcd | edef geff | cedc B2 AG | %6
 A2 Bd e^f ga/b/ | ^f2 g2 ga/g/ f2 | g>a g^f g3 :: g | g2- g/a/e/g/ fg/a/ g>f | e2 x2 efe>d | %12
 c2- c/A/B/c/ de/d/ cB/A/ | B2 x2 e!p!=gaf | ge!f! (A/a/)(B/d/) (B/g/)(c/e/) (A/d/)(A/d/) | %15
 e2 Bd!p! ecdB |!f! (E/e/)(A/c/) (^F/^f/)(G/B/) (=F/c/)(E/c/) c>B | c>dcB c3 :| %18
[M:3/2][Q:1/4=320]"^Courante" e4 | e6 f2 g2 a2 | f4 e4 z4 | d4 c4 z4 | B4 A4 z4 | G4 F4 z4 | %24
 E4 D6 C2 | C6 G2 A2 B2 | c2 d2 c2 B2 A4 | d2 e2 d2 c2 B2 d2 | g2 a2 g2 f2 e4 | a2 b2 a2 g2 f4 | %30
 g2 a2 g2 f2 e4 | f2 g2 f2 e2 d2 c2 | B6 c2 B2 A2 | B8 :: B4 | B6 G2 A2 B2 | c4 B6 A2 | %37
 B6 d2 c2 B2 | e6 f2 g2 a2 | f6 e2 d2 c2 | B2 c2 B6 A2 | A6 A2 B2 c2 | d4 c6 B2 | B6 d2 e2 f2 | %44
 g4 f6 e2 | e6 e2 f2 g2 | !fermata!a6 g2 f2 e2 | d2 c2 B6 B2 | [CEc]8 :| %49
[M:3/2][Q:1/4=100]"^Sarabande" e4 f4 g4 | f6 g2 e4 | d4 c4 d4 | B8 c4 | e4 f4 g4 | ^f6 f2 g4 | %55
 a4 b4 a2 g2 | ^f6 f2 g4 |!p! a4 b4 a2 g2 | ^f6 f2 g4 ::!f! B4 c4 d4 | e6 f2 g4 | g4 g4 g4 | %62
 g6 ^f2 g4 | g4 e4 a4 | f4 f4 g4 | e4 c8 | B8 c4 :|[M:6/2][Q:1/4=600]"^Gigue" G4 | c8 d4 e8 f4 | %69
 g6 f2 g4 e12 | g12 e6 f2 g4 | f12 d6 e2 f4 | e12 c12 | B12 _B12 | A12 F12 | E8 F4 F8 E4 | %76
 F8 x12 G4 | A8 _B4 c6 B2 c4 | [FA]12 [Ac]12 | A6 _B2 c4 B12 | G6 A2 _B4 A12 | F12 E8 G4 | %82
 c8 d4 e8 f4 | g6 f2 g4 e12 | g12 e6 f2 g4 | f12 d6 e2 f4 | e12 c12 | B6 c2 B4 A8!p! A4 | %88
 B6 c2 B4 A8!f! A4 | B6 c2 B4 A6 G2 ^F4 | B12 B8 :: G4 | d6 e2 d4 e6 d2 c4 | B6 c2 B4 c6 B2 A4 | %94
 g6 a2 g4 a6 g2 f4 | g6 f2 e4 f6 g2 f4 | e6 g2 ^f4 g8 G,4 | B6 c2 B4 c8 C4 | G6 A2 G4 A6 G2 F4 | %99
 E6 F2 E4 F6 E2 D4 | E6 c2 B4 A6 d2 c4 | B6 g2 f4 e6 a2 g4 | ^f4 x8 g4 x8 | g6 a2 ^f4 g8 G4 | %104
 d6 e2 d4 e6 d2 c4 | B6 c2 B4 c6 B2 A4 | g6 a2 g4 a6 g2 f4 | g6 f2 e4 f6 g2 f4 | e4 x8 B4 x8 | %109
 A4 x8 E4 x8 | D6 G2 F4 E6 c2 _B4 | A6 d2 c4 B8 c4 | c6 d2 e4 B6 A2 B4 | c6 d2 B4 c6 d2 B4 | %114
 [CEc]12 [CEc]8 :| %115
V:2
 c | c2- c/e/d/e/ cGEF | DAGF ED ED/C/ | D2 D2 E z z2 | z Gcd ecAB | C2 A,2 G,B, C2 | %6
 DC B,2 E2 D2 | dc BA/G/ A2 A>c | B>c BA B3 :: x | B2 z2 A2 B2 | C2- C/C/B,/A,/ E2 x2 | %12
 E2 x2 ^F2 E2 | E2- E/F/E/D/ CcAd | Bc x2 x4 | E^F G2 EAFG | x6 D2 | E>FED E3 :|[M:3/2] c4 | %19
 c4 x8 | A4 G4 x4 | F4 E4 x4 | F4 E4 x4 | B,4 A,4 x4 | G,8 x4 | x12 | E8 F2 E2 | D8 G4 | B8 c2 B2 | %29
 A8 d2 c2 | B8 c2 B2 | A12 | G6 A2 G2 ^F2 | G8 :: x4 | G4 x8 | E4 [^D^F]8 | ^G4 x8 | c4 x8 | %39
 A4 x8 | ^G2 A2 E8 | A6 x6 | [A,^F]8 x4 | G4 x8 | [G,DB]8 x4 | c4 x8 | !fermata!c6 e2 d2 c2 | %47
 F2 E2 [G,D]8 | x8 :|[M:3/2] c4 d4 e4 | d6 e2 c4 | F4 ^F4 D4 | D8 E4 | c4 d4 e4 | d6 c2 B4 | %55
 c4 d4 c2 B2 | A6 A2 B4 | c4 d4 c2 B2 | A6 A2 B4 :: G4 E4 D4 | E4 z4 D4 | d4 c4 B4 | c8 B4 | %63
 e4 c4 A4 | d4 B4 B4 | c4 E4 F4 | D8 E4 :|[M:6/2] x4 | x8 G4 c8 d4 | e6 d2 e4 c12 | e12 c6 d2 e4 | %71
 d12 B6 c2 d4 | c12 E8 ^F4 | G12 D8 E4 | F12 A,8 _B,4 | C8 A,4 G,8 G,4 | A,8 C4 F8 C4 | %77
 F8 G4 A6 G2 A4 | x24 | F6 G2 A4 G12 | E6 F2 G4 F12 | A,8 =B,4 C8 x4 | x8 G4 c8 d4 | e6 d2 e4 c12 | %84
 e12 c6 d2 e4 | d12 B6 c2 d4 | c12 E8 ^F4 | G6 A2 G4 ^F4 D4 F4 | G6 A2 G4 ^F4 D4 F4 | %89
 G6 A2 G4 D12 | G12 G8 :: x4 | x16 x4 D4 | G6 A2 G4 A6 G2 F4 | c12 c8 d4 | c8 c4 [G,DB]12 | %96
 [Ec]8 c4 B8 x4 | G6 A2 G4 E8 C4 | x8 x8 x4 G,4 | C6 D2 C4 D6 C2 B,4 | C8 x4 [D^F]8 x4 | %101
 [G,D]8 x4 [CEc]8 x4 | D6 A2 c4 B6 G2 B4 | A4 x8 B8 x4 | x16 x4 D4 | G6 A2 G4 A6 G2 F4 | %106
 c12 c8 d4 | c8 c4 [G,DB]12 | C6 E2 F4 G6 D2 E4 | F6 A,2 B,4 C6 G,2 A,4 | B,4 x4 x4 C4 x8 | %111
 F4 x4 x4 G6 F2 E4 | D12 [G,D]12 | E8 D4 E8 D4 | x20 :| %115
V:3
 x | E2 x2 x4 | x8 | c2 B2 c x x2 | x4 x2 DG, | E2 ^F2 G2 E2 | ^F2 G2 c2 B2 | D2 D2 D2 D2 | %8
 G2 x2 D3 :: x | D2 x2 x2 D2 | c2 z2 B2 x2 | x8 | ^G2 x2 c2 x2 | x8 | c2 x2 x4 | x8 | x4 C3 :| %18
[M:3/2] x4 | E4 x8 | x12 | x12 | x12 | x12 | x12 | x12 | x12 | x12 | x12 | x12 | x12 | x12 | x12 | %33
 x8 :: x4 | G,4 x8 | A,4 x8 | E4 x8 | E4 x8 | D4 x8 | x12 | x12 | x12 | G,4 x8 | x12 | E4 x8 | %46
 F6 x2 x4 | x12 | x8 :|[M:3/2] x12 | x12 | x12 | G,8 C4 | x12 | x12 | x12 | x12 | x12 | x12 :: %59
 x12 | c4 x4 B4 | x12 | x8 G4 | x12 | x8 G4 | x12 | x12 :|[M:6/2] x4 | x24 | x24 | x24 | x24 | %72
 x24 | x24 | x24 | x24 | x24 | x24 | x24 | x24 | x24 | x24 | x24 | x24 | x24 | x24 | x24 | x24 | %88
 x24 | x24 | x20 :: x4 | x24 | x24 | E12 F8 D4 | E8 E4 x12 | C8 D4 x12 | x24 | x24 | x24 | x24 | %101
 x24 | d6 x6 x12 | D4 x2 x6 x12 | x24 | x24 | E12 F8 D4 | E8 E4 x12 | c4 x4 x16 | x24 | x24 | x24 | %112
 x24 | x24 | x20 :| %115
V:4
 x | C2 x2 x4 | x8 | G,2 G,2 C x x2 | x4 x2 x D | x8 | x4 A,2 G,2 | x8 | x4 G,3 :: x | %10
 G,2 x2 D2 G,2 | E2 x2 ^G,2 x2 | A,2 x2 A,2 A,2 | x4 E2 x2 | x8 | x8 | x8 | x7 :|[M:3/2] x4 | %19
 C4 x8 | x12 | x12 | x12 | x12 | x12 | x12 | x12 | x12 | x12 | x12 | x12 | x12 | x12 | x8 :: x4 | %35
 x12 | x12 | x12 | C4 x8 | x12 | x12 | x12 | x12 | x12 | x12 | C4 z8 | x12 | x12 | x8 :| %49
[M:3/2] x12 | x12 | x12 | x12 | x12 | x12 | x12 | x12 | x12 | x12 :: x12 | C4 x4 G,4 | x12 | x12 | %63
 x12 | x12 | x12 | x12 :|[M:6/2] x4 | x24 | x24 | x24 | x24 | x24 | x24 | x24 | x24 | x24 | x24 | %78
 x24 | x24 | x24 | x24 | x24 | x24 | x24 | x24 | x24 | x24 | x24 | x24 | x20 :: x4 | x24 | x24 | %94
 x24 | x6 x2 C4 x12 | x24 | x24 | x24 | x24 | x24 | x24 | x24 | x24 | x24 | x24 | x24 | x8 C4 x12 | %108
 E4 x4 x16 | x24 | x24 | x24 | x24 | x24 | x20 :| %115

